packages/sources/icons/src/vitamix/volume-mute-fill.svg

<svg width="16" height="16" viewBox="0 0 16 16" fill="none" xmlns="http://www.w3.org/2000/svg">
<path fill-rule="evenodd" clip-rule="evenodd" d="M1.33334 10.6666H3.92601H3.92667L7.45534 13.5546C7.55502 13.6364 7.69288 13.6533 7.80937 13.5981C7.92586 13.5429 8.00009 13.4255 8.00001 13.2966V2.70331C8.00009 2.57441 7.92586 2.45702 7.80937 2.40184C7.69288 2.34666 7.55502 2.36359 7.45534 2.44531L3.92601 5.33331H1.33334C0.965149 5.33331 0.666672 5.63179 0.666672 5.99998V9.99998C0.666672 10.3682 0.965149 10.6666 1.33334 10.6666ZM15.9667 10.3573L13.6093 7.99997L15.9667 5.64264L15.024 4.69997L12.6667 7.0573L10.3093 4.69997L9.36666 5.64264L11.724 7.99997L9.36666 10.3573L10.3093 11.3L12.6667 8.94264L15.024 11.3L15.9667 10.3573Z" fill="#001018"/>
</svg>

<svg width="16" height="16" fill="none" xmlns="http://www.w3.org/2000/svg"><path fill-rule="evenodd" clip-rule="evenodd" d="M1.333 10.667h2.593l3.53 2.888A.333.333 0 0 0 8 13.297V2.703a.333.333 0 0 0-.545-.258L3.926 5.333H1.333A.667.667 0 0 0 .667 6v4c0 .368.298.667.666.667zm14.634-.31L13.609 8l2.358-2.357-.943-.943-2.357 2.357L10.309 4.7l-.942.943L11.724 8l-2.357 2.357.942.943 2.358-2.357 2.357 2.357.943-.943z" fill="#001018"/></svg>
